assets/images/icons/set2/error.svg

<svg xmlns="http://www.w3.org/2000/svg" width="28" height="28" xmlns:xlink="http://www.w3.org/1999/xlink" id="set2-error">
  <use xlink:href="#a19" transform="translate(4 4)"/>
  <defs>
    <path id="a19" fill-rule="evenodd" d="M10 20c5.5229 0 10-4.4772 10-10 0-5.52283-4.4771-10-10-10C4.47714 0 0 4.47717 0 10c0 5.5228 4.47714 10 10 10zM9.5726 4c-.56521 0-1.0181.46802-.99945 1.03296l.18402 5.57814c.01776.5392.45999.967.99945.967h.56488c.5395 0 .9817-.4278.9995-.967l.184-5.57814C11.5236 4.46802 11.0707 4 10.5055 4h-.9329zm.4665 11.5469c-1.00785 0-1.59379-.5235-1.59379-1.4219 0-.9062.58594-1.4297 1.59379-1.4297 1.0078 0 1.6015.5235 1.6015 1.4297 0 .8984-.5937 1.4219-1.6015 1.4219z"/>
  </defs>
</svg>

<svg width="28" height="28" viewBox="0 0 28 28" version="1.1" xmlns="http://www.w3.org/2000/svg" xmlns:xlink="http://www.w3.org/1999/xlink">
<title>@$&#9;</title>
<desc>Created using Figma</desc>
<g id="Canvas" transform="translate(-436 -1834)">
<g id="Icon/Misc/Red/Block">
<g id="Icon/Misc/Red/Block">
<g id="Combined Shape">
<use xlink:href="#path0_fill" transform="translate(440 1838)" fill="#E94659"/>
</g>
</g>
</g>
</g>
<defs>
<path id="path0_fill" fill-rule="evenodd" d="M 10 20C 15.5229 20 20 15.5228 20 10C 20 4.47717 15.5229 0 10 0C 4.47714 0 0 4.47717 0 10C 0 15.5228 4.47714 20 10 20ZM 9.5726 4C 9.00739 4 8.5545 4.46802 8.57315 5.03296L 8.75717 10.6111C 8.77493 11.1503 9.21716 11.5781 9.75662 11.5781L 10.3215 11.5781C 10.861 11.5781 11.3032 11.1503 11.321 10.6111L 11.505 5.03296C 11.5236 4.46802 11.0707 4 10.5055 4L 9.5726 4ZM 10.0391 15.5469C 9.03125 15.5469 8.44531 15.0234 8.44531 14.125C 8.44531 13.2188 9.03125 12.6953 10.0391 12.6953C 11.0469 12.6953 11.6406 13.2188 11.6406 14.125C 11.6406 15.0234 11.0469 15.5469 10.0391 15.5469Z"/>
</defs>
</svg>
